Newaita/actions/16/chronometer.svg

<?xml version="1.0" encoding="UTF-8"?>
<svg xmlns="http://www.w3.org/2000/svg" xmlns:xlink="http://www.w3.org/1999/xlink" width="16pt" height="16pt" viewBox="0 0 16 16" version="1.1">
<g id="surface1">
<path style=" stroke:none;fill-rule:nonzero;fill:rgb(25.882354%,25.882354%,25.882354%);fill-opacity:1;" d="M 7.9375 0.785156 C 6.523438 0.785156 5.207031 1.1875 4.09375 1.878906 L 3.386719 1.175781 L 1.050781 3.511719 L 1.753906 4.21875 C 1.0625 5.332031 0.660156 6.648438 0.660156 8.0625 C 0.660156 12.09375 3.90625 15.339844 7.9375 15.339844 C 11.96875 15.339844 15.214844 12.09375 15.214844 8.0625 C 15.214844 6.648438 14.816406 5.332031 14.125 4.21875 L 14.828125 3.511719 L 12.488281 1.175781 L 11.785156 1.878906 C 10.667969 1.1875 9.351562 0.785156 7.9375 0.785156 Z M 7.9375 1.777344 C 11.417969 1.777344 14.222656 4.582031 14.222656 8.0625 C 14.222656 11.542969 11.417969 14.347656 7.9375 14.347656 C 4.457031 14.347656 1.652344 11.542969 1.652344 8.0625 C 1.652344 4.582031 4.457031 1.777344 7.9375 1.777344 Z M 7.9375 1.777344 "/>
<path style=" stroke:none;fill-rule:nonzero;fill:rgb(93.725491%,32.549021%,31.37255%);fill-opacity:1;" d="M 7.9375 2.441406 L 7.9375 8.0625 L 13.5625 8.0625 C 13.5625 4.949219 11.058594 2.441406 7.953125 2.441406 Z M 7.9375 2.441406 "/>
</g>
</svg>

<svg xmlns="http://www.w3.org/2000/svg" width="16pt" height="16pt" viewBox="0 0 16 16"><path d="M7.938.785c-1.415 0-2.731.402-3.844 1.094l-.707-.703L1.05 3.512l.703.707A7.261 7.261 0 0 0 .66 8.062a7.262 7.262 0 0 0 7.277 7.278 7.262 7.262 0 0 0 7.278-7.277c0-1.415-.399-2.731-1.09-3.844l.703-.707-2.34-2.336-.703.703A7.285 7.285 0 0 0 7.937.785zm0 .992a6.273 6.273 0 0 1 6.285 6.285 6.273 6.273 0 0 1-6.286 6.286 6.273 6.273 0 0 1-6.285-6.286 6.273 6.273 0 0 1 6.285-6.285zm0 0" fill="#424242"/><path d="M7.938 2.441v5.621h5.625a5.605 5.605 0 0 0-5.61-5.62zm0 0" fill="#ef5350"/></svg>
